X:303
T:Cliffs of Moher
C:Trad, Ir.  
M:6/8
L:1/8
%% Q:3/8=112
K:Am 
 |: a2a bag | ea^f ged | c2A BAG | EFG ABd |
    eaa bag | ea^f ged | c2A BAG | EFG A3 :|
 || e3 dBA | e3 dBA | GAB dBA | GAB dBd | 
    e3 dBA | efe dBA | GAB dBA | BAG A3 | 
    e3 dBA | e3 dBA | GAB dBA | GAB dBd | 
    efe dee | cee Bee | EFG AGE | DB,G, A,3 || 
%%newpage
%%text
%%text
%%text
%%text
